X:1
T:Title
%%score { ( 1 3 ) | ( 2 4 ) }
L:1/8
M:4/4
K:Ab
V:1 treble nm="Grand Piano"
V:3 treble 
V:2 bass 
V:4 bass 
V:1
 z4 z2[Q:1/4=100] [Ec]>[Fd] | c2 B2- B=ABc | [DB]2 [CA]4 [CA][CB] | AGGG Gd c>B | %4
 [Ec]4 z [Ec][Fd][Ec] | c2 B2- BBcB | [DB]2 [CA]2- [CA][CA][Ec][CEA] | %7
 [B,EG]2 [EB]2- [EB][Ge][Ac][A=d] |[M:3/4] [A=d]2 [Ge]4 |[M:1/4] [Fd]>[Ec] |[M:4/4] [Ec]2 B4 z2 | %11
[M:3/4] [Ec]2 [E_GA]4 |[M:1/4] [E_GA][EGB] |[M:4/4] [FB][FA][FA][Fd] [Fd][FA] [FA]>[FB] | %14
[M:3/4] [Ec]6 |[M:1/4] c>e |[M:4/4] e2 [GB]4 z2 |[M:3/4] [_Gc]2 [GA]4 |[M:1/4] [FA][FA] | %19
[M:4/4] EEEE EE B>[Q:1/4=76]c[Q:1/4=99][Q:1/4=97][Q:1/4=96][Q:1/4=94][Q:1/4=93][Q:1/4=91][Q:1/4=90][Q:1/4=88][Q:1/4=87][Q:1/4=85][Q:1/4=84][Q:1/4=82][Q:1/4=81][Q:1/4=79][Q:1/4=78] | %20
[M:7/8] A-A-A- A- A3 |] %21
V:2
 z4 z2 [A,,A,]>[A,,A,] | [E,G,E]2 [E,G,D]2- [E,G,D][E,G,C][E,G,D][E,E] | %2
 [A,,E,]2 [A,,E,]4 [A,,E,][A,,E,] | [E,D][E,B,D][E,B,D][E,B,D] [E,B,D][E,G,F] [E,G,E]>[E,G,D] | %4
 [A,,A,]4 z [A,,A,][A,,A,][A,,A,] | [E,G,E]2 [E,G,D]2- [E,G,D][E,G,D][E,G,E][E,D] | %6
 [A,,E,]2 [A,,E,]2- [A,,E,][A,,E,][A,,A,]A,, | B,,2 [B,,G,]2- [B,,G,][B,,B,][B,,B,][B,,B,] | %8
[M:3/4] [B,,B,]2 [E,B,]4 |[M:1/4] [E,G,]>[E,A,] |[M:4/4] z2 D4 z2 | %11
[M:3/4] [A,,A,]A,, A,,A,, A,,A,, |[M:1/4] C,C, | %13
[M:4/4] [D,D][D,D][D,D][D,A,] [D,A,][D,D] [D,D]>[D,A,] |[M:3/4] [A,,A,]2 A,,>A,, A,,2 | %15
[M:1/4][K:treble] [A,E]>[A,CA] |[M:4/4] .[B,D]2[K:bass] z2 z4 |[M:3/4] A,A, A,,A,, A,,A,, | %18
[M:1/4] [D,D][D,D] |[M:4/4] [E,C][E,A,C][E,A,C][E,C] [E,B,D][E,F,D] [E,G,D]>[E,G,D] | %20
[M:7/8] z2 F,>F, E,3 |] %21
V:3
 x8 | x8 | x8 | x8 | x8 | x8 | x8 | x8 |[M:3/4] x6 |[M:1/4] x2 |[M:4/4] z G, z G, G,d c>B | %11
[M:3/4] z A, CC CC |[M:1/4] x2 |[M:4/4] x8 |[M:3/4] z2 A,>A, A,2 |[M:1/4] x2 | %16
[M:4/4] z DDD D[FGd] [EGc]>[EGB] |[M:3/4] EE CC CC |[M:1/4] x2 |[M:4/4] x8 | %20
[M:7/8] [A,C]2 D>D C3 |] %21
V:4
 x8 | x8 | x8 | x8 | x8 | x8 | x8 | x8 |[M:3/4] x6 |[M:1/4] x2 | %10
[M:4/4] [E,G,]E,[E,G,]E, E,[E,G,F] [E,G,E]>[E,G,D] |[M:3/4] x6 |[M:1/4] x2 |[M:4/4] x8 | %14
[M:3/4] x6 |[M:1/4][K:treble] x2 |[M:4/4] G-[B,G][K:bass]E,E, E,E, E,>E, |[M:3/4] x6 |[M:1/4] x2 | %19
[M:4/4] x8 |[M:7/8] A,,-A,,-A,,- A,,- A,,3 |] %21

